X: 09039
T: FINGAL'S REEL
C: Bob McQuillen 24 Mar 92
B: Bob's Note Book 9 #39
R: reel
Z: 2018 John Chambers <jc:trillian.mit.edu>
M: C
L: 1/8
K: D
dB \
| A2BA FAdB | A2FA BABd | A2BA FAde | fded B2dB |
| A2BA FAdB | A2df edfe | dfaf bafe | dfed B2 :|
|: df \
| a2af defd | efed BAdf | a2af defd | Adfd e2de |
| fafd e2fe | dfed B2dB | A2dB ABdf | afde fd :|
%%begintext align
%% FINGAL is the great Scottish
%% giant who lives in a huge cave on the island of Staffa, a short
%% distance from the Isle of Mull, off the west coast of Scotland in
%% the group of islands called the Hebrides. Sue and Iain Bain and Sarah
%% Bauhan and I stopped by to see him one day in Sept 89; he was not at
%% home in his cave; we were told this was his day to chase the sea monsters
%% and mermaids away from his waters. We played some tunes in his cave and
%% then left the way we had come, on Iain Morrison's boat. We saw a mermaid on
%% the way home!
%%endtext

%%sep 1 1 500

%%sep 1 1 500

